apps/ui-icons/svgs/seed.svg

<svg viewBox="0 0 24 24" width="24" height="24"  fill="none" xmlns="http://www.w3.org/2000/svg">
<path d="M12 11C12 7.68629 9.31371 5 6 5H5C4.44772 5 4 5.44772 4 6V7C4 10.3137 6.68629 13 10 13V19C10 19.5523 10.4477 20 11 20C11.5523 20 12 19.5523 12 19V11Z" fill="#171D26"/>
<path d="M13 11C13 7.68629 15.6863 5 19 5H20C20.5523 5 21 5.44772 21 6V7C21 10.3137 18.3137 13 15 13H14C13.4477 13 13 12.5523 13 12V11Z" fill="#171D26"/>
</svg>

<svg xmlns="http://www.w3.org/2000/svg" width="24" height="24" fill="none" viewBox="0 0 24 24">
  <path fill="#171D26" d="M12 11a6 6 0 0 0-6-6H5a1 1 0 0 0-1 1v1a6 6 0 0 0 6 6v6a1 1 0 1 0 2 0v-8Zm1 0a6 6 0 0 1 6-6h1a1 1 0 0 1 1 1v1a6 6 0 0 1-6 6h-1a1 1 0 0 1-1-1v-1Z"/>
</svg>
